X:197
T:Ring - children at Menhenniot
%%VWML:SBG-1-2-820-0
F:http://www.vwml.org/record/SBG/1/2/820
Z:Original Sibelius transcriptions by M. & S. Graebe
M:3/4
I:linebreak $
K:F
V:1 treble nm="P1"
V:1
 c | d c A | c F A | c B G | A F c | d c A | c F A |$ c B G | F3 c | d B f | c A f | c G G | F3 | %13

